X: 10262
M: C
L: 1/8
K: G
e2c>c c2a/g/f/e/ | d2B>B B2ed |\
c2A>A A2 f/e/d/c/ | B2B>B G2dc |
(3(Bcd) (3(efg) B2A2 | G2G>G G2 |[| ga |\
(3(gab) G>G G2 ga | (3(gab) G>G G2 gf |\
efga g2f2 | e>ee2 efge |\
dcde dgbg | cBcd cfac |\


